X:413
T: DAS LIED VOM WEIN
N: F0758
O: Europa, Mitteleuropa, Deutschland
R: Geselligkeits -, Trink - Lied
M: 3/4
L: 1/16
K: A
E2 | A3AA6c2 | c3BB6
d2 | c3de4A4 | c3BA4z2
A2 | e3ee6f2 | e3dd4z2
B2 | c3ce6c2 | c3BB4z2
E2 | A3AA6c2 | c3BB6
d2 | c3de4A4 | c3BA4z2

@@@ Tune index: 5844
